X:6
T:Petit Brande
S:http://www.fourwinds.demon.nl/branles.htm
Z:Jack Campin <http://www.campin.me.uk/> 2002
M:C|
L:1/8
K:C
e3 d c2g2|efg2   e2c2|e3 d c2g2|efg2 e4:|
c2c2 d2d2|e3d/e/ f4  |e3 d c2B2|cdef g4 |
GABc d2d2|e3d/e/ f3 g|a2g2 fge2|d3 c c4:|
